X: 3
T: Road to Boston (R-9)
M: C|
Z: Transcribed to abc by Mary Lou Knack
R: reel
K: D
e2| "D"f6 ef| g2f2 e2d2| "A"c2d2 e2f2| "D"d2A2 F2A2|
    "D"f6 ef| g2f2 e2d2| "A"c2d2 e2c2| "D"d6 :|
|:fg| "D"a6 ^ga| "B"b2a2 =g2f2| "Em"g6 fg| "A"a2g2 f2e2|
    "D"f6 ef| "G"g2f2 e2d2| "A"c2d2 e2c2| "D"d2A2 d2 :|
%%text 03/26/02 

#include "LeftHeader.h"
%%scale .75
% ---------- set 70 ----------
% Hughie Shortie's (G)/ Easy Club (A)/  Bus Stop (Am)

$SmallLMargin
%%text Set 70
%%vskip -1cm
%%scale .9
